germany/municipalities/03359015.svg

<?xml version="1.0" encoding="UTF-8" standalone="no"?>
<!-- Created with Inkscape (http://www.inkscape.org/) -->
<svg
   xmlns:dc="http://purl.org/dc/elements/1.1/"
   xmlns:cc="http://web.resource.org/cc/"
   xmlns:rdf="http://www.w3.org/1999/02/22-rdf-syntax-ns#"
   xmlns:svg="http://www.w3.org/2000/svg"
   xmlns="http://www.w3.org/2000/svg"
   xmlns:xlink="http://www.w3.org/1999/xlink"
   xmlns:sodipodi="http://inkscape.sourceforge.net/DTD/sodipodi-0.dtd"
   xmlns:inkscape="http://www.inkscape.org/namespaces/inkscape"
   id="svg1339"
   sodipodi:version="0.32"
   inkscape:version="0.43"
   width="210mm"
   height="265mm"
   sodipodi:docbase="D:\apachefriends\xampp\htdocs\CountyBuilder"
   sodipodi:docname="Wappen_Engelschoff.svg"
   version="1.0">
  <metadata
     id="metadata1344">
    <rdf:RDF>
      <cc:Work
         rdf:about="">
        <dc:format>image/svg+xml</dc:format>
        <dc:type
           rdf:resource="http://purl.org/dc/dcmitype/StillImage" />
      </cc:Work>
    </rdf:RDF>
  </metadata>
  <defs
     id="defs1342" />
  <sodipodi:namedview
     inkscape:window-height="998"
     inkscape:window-width="1280"
     inkscape:pageshadow="2"
     inkscape:pageopacity="0.0"
     borderopacity="1.0"
     bordercolor="#666666"
     pagecolor="#ffffff"
     id="base"
     inkscape:zoom="1.0371135"
     inkscape:cx="349.06049"
     inkscape:cy="248.93014"
     inkscape:window-x="-4"
     inkscape:window-y="-4"
     inkscape:current-layer="svg1339" />
  <path
     style="fill:#00d700;fill-opacity:1;fill-rule:evenodd;stroke:#000000;stroke-width:2;stroke-linecap:butt;stroke-linejoin:miter;stroke-opacity:1;stroke-miterlimit:4;stroke-dasharray:none"
     d="M 8.6066341,21.445287 L 737.92466,17.213268 L 736.51399,577.25052 C 736.51399,577.25052 705.53446,918.17084 378.20301,918.63343 C 38.226541,919.11389 7.1603122,558.91177 7.1603122,558.91177 L 8.6066341,21.445287 z "
     id="path1348"
     sodipodi:nodetypes="cccscc" />
  <path
     style="fill:#0000ff;fill-opacity:1;fill-rule:evenodd;stroke:#000000;stroke-width:1px;stroke-linecap:butt;stroke-linejoin:miter;stroke-opacity:1"
     d="M 6.7138537,11.83879 L 6.2317464,534.93032 L 736.51399,529.28763 L 736.51399,12.981248 L 6.7138537,11.83879 z "
     id="path3997"
     sodipodi:nodetypes="ccccc" />
  <path
     style="fill:#d2d2d2;fill-opacity:1;fill-rule:evenodd;stroke:#000000;stroke-width:2;stroke-linecap:butt;stroke-linejoin:miter;stroke-opacity:1;stroke-miterlimit:4;stroke-dasharray:none"
     d="M 7.195961,123.01376 L 57.980195,123.01376 L 57.980195,67.479746 L 151.08463,67.479746 L 150.19171,124.42443 L 194.81549,124.42443 L 194.81549,66.586829 L 288.33073,66.586829 L 287.91992,123.01376 L 328.82945,123.01376 L 329.3472,65.693912 L 420.96966,65.622614 L 420.5232,122.12084 L 464.25407,123.08505 L 464.25407,63.765483 L 559.14433,63.765483 L 558.76917,123.56716 L 605.76785,123.12071 L 605.76785,64.176292 L 695.56882,64.24759 L 694.7472,121.15662 L 736.9248,121.63873 L 736.51399,12.981248 L 7.3029073,12.285248 L 7.195961,123.01376 z "
     id="path1350"
     sodipodi:nodetypes="ccccccccccccccccccccccccc" />
  <path
     style="fill:#d2d2d2;fill-opacity:1;fill-rule:evenodd;stroke:#000000;stroke-width:2;stroke-linecap:butt;stroke-linejoin:miter;stroke-opacity:1;stroke-miterlimit:4;stroke-dasharray:none"
     d="M 334.57632,349.61478 L 376.79233,304.07133 L 421.63563,346.67761 L 431.59592,338.47028 L 375.73952,285.9517 L 418.24554,245.26435 L 408.1288,236.95891 L 359.02537,282.04943 L 357.75066,280.87699 L 356.58826,279.80785 L 312.11403,238.90163 L 303.90672,247.20186 L 360.50693,301.8771 L 323.40677,339.57411 L 334.57632,349.61478 z "
     id="path1366"
     sodipodi:nodetypes="ccccccccccccccc" />
  <path
     sodipodi:type="arc"
     style="fill:#d2d2d2;fill-opacity:1;fill-rule:evenodd;stroke:#000000;stroke-width:2;stroke-linecap:butt;stroke-linejoin:miter;stroke-opacity:1;stroke-miterlimit:4;stroke-dasharray:none"
     id="path1368"
     sodipodi:cx="-260.97455"
     sodipodi:cy="242.63579"
     sodipodi:rx="7.0533657"
     sodipodi:ry="7.0533657"
     d="M -253.92118 242.63579 A 7.0533657 7.0533657 0 1 1  -268.02791,242.63579 A 7.0533657 7.0533657 0 1 1  -253.92118 242.63579 z"
     transform="translate(629.5522,52.14516)" />
  <path
     style="fill:#d2d2d2;fill-opacity:1;fill-rule:evenodd;stroke:#000000;stroke-width:2;stroke-linecap:butt;stroke-linejoin:miter;stroke-opacity:1;stroke-miterlimit:4;stroke-dasharray:none"
     d="M 7.1246634,516.59157 L 6.6425561,556.60818 C 26.391981,549.55481 44.146412,534.13921 63.048108,533.51965 C 81.31513,534.33132 135.22577,566.06539 157.48278,566.37831 C 182.51793,567.53311 242.19969,532.81132 264.24235,532.46987 C 292.17057,530.9019 346.29948,563.21552 369.73897,563.14379 C 392.06687,563.79984 455.29213,532.00397 475.12628,531.66252 C 500.67883,532.76794 563.23955,567.59338 585.74311,568.28773 C 606.54624,569.49958 671.23921,535.79904 689.5486,534.0184 C 710.46667,534.14634 719.99672,542.85284 736.9248,548.96576 L 736.51399,506.71686 C 720.99659,501.54439 707.97292,491.38445 689.96178,491.19946 C 671.62386,491.95408 606.90237,527.12234 585.57196,527.87696 C 566.4077,527.59256 494.87486,493.89203 472.71811,492.61013 C 454.90747,493.39328 387.72075,527.09381 366.91762,527.87696 C 345.53017,527.56403 294.71658,494.83248 265.34915,494.0208 C 243.02126,493.25066 187.27722,531.88163 160.95934,532.10898 C 140.45529,532.4089 87.033854,492.31021 65.033561,492.61013 C 47.193558,491.62647 25.463415,508.59776 7.1246634,516.59157 z "
     id="path1352"
     sodipodi:nodetypes="ccccccccccccccccccc" />
  <g
     id="g12735"
     transform="translate(5.785288,11.57058)">
    <path
       id="path12729"
       d="M 121.19583,514.71154 L 94.762173,503.24032"
       style="fill:none;fill-opacity:0.75;fill-rule:evenodd;stroke:#000000;stroke-width:2;stroke-linecap:butt;stroke-linejoin:miter;stroke-opacity:1;stroke-miterlimit:4;stroke-dasharray:none"
       sodipodi:nodetypes="cc" />
    <path
       id="path12731"
       d="M 121.19583,523.689 L 89.774691,508.72656"
       style="fill:none;fill-opacity:0.75;fill-rule:evenodd;stroke:#000000;stroke-width:2;stroke-linecap:butt;stroke-linejoin:miter;stroke-opacity:1;stroke-miterlimit:4;stroke-dasharray:none"
       sodipodi:nodetypes="cc" />
    <path
       id="path12733"
       d="M 121.69458,530.67148 L 87.779698,516.20778"
       style="fill:none;fill-opacity:0.75;fill-rule:evenodd;stroke:#000000;stroke-width:2;stroke-linecap:butt;stroke-linejoin:miter;stroke-opacity:1;stroke-miterlimit:4;stroke-dasharray:none"
       sodipodi:nodetypes="cc" />
  </g>
  <use
     x="0"
     y="0"
     xlink:href="#g12735"
     id="use12740"
     transform="translate(406.9786,-5.984979)"
     width="744.09448"
     height="1052.3622" />
  <use
     x="0"
     y="0"
     xlink:href="#use12740"
     id="use12742"
     transform="translate(-193.0295,7.514505)"
     width="744.09448"
     height="1052.3622" />
  <use
     x="0"
     y="0"
     xlink:href="#g12735"
     id="use12744"
     transform="translate(610.4679,-7.979973)"
     width="744.09448"
     height="1052.3622" />
  <g
     id="g12790"
     transform="translate(5.785288,11.57058)">
    <path
       sodipodi:nodetypes="ccccc"
       id="path1356"
       d="M 318.13034,811.71313 L 318.33003,551.74954 C 318.09492,544.87251 298.94516,543.99084 299.06271,551.74954 L 301.15518,811.66607 L 318.13034,811.71313 z "
       style="fill:#d2d2d2;fill-opacity:1;fill-rule:evenodd;stroke:#000000;stroke-width:2;stroke-linecap:butt;stroke-linejoin:miter;stroke-opacity:1;stroke-miterlimit:4;stroke-dasharray:none" />
    <path
       sodipodi:nodetypes="ccccc"
       id="path1358"
       d="M 300.47338,660.19504 L 256.74252,659.13704 C 250.39449,659.07826 250.04182,672.77354 256.74252,673.24377 L 300.38782,674.30177 C 303.76669,674.36055 303.26621,660.3126 300.47338,660.19504 z "
       style="fill:#d2d2d2;fill-opacity:1;fill-rule:evenodd;stroke:#000000;stroke-width:2;stroke-linecap:butt;stroke-linejoin:miter;stroke-opacity:1;stroke-miterlimit:4;stroke-dasharray:none" />
    <path
       sodipodi:nodetypes="ccccc"
       id="path1360"
       d="M 299.06271,567.09061 L 227.99486,567.09061 L 228.35272,555.97637 L 298.88637,557.03957 C 302.64817,557.03957 302.88328,567.44328 299.06271,567.09061 z "
       style="fill:#d2d2d2;fill-opacity:1;fill-rule:evenodd;stroke:#000000;stroke-width:2;stroke-linecap:butt;stroke-linejoin:miter;stroke-opacity:1;stroke-miterlimit:4;stroke-dasharray:none" />
    <g
       id="g12748">
      <path
         style="fill:#c3c3c3;fill-opacity:1;fill-rule:evenodd;stroke:#000000;stroke-width:2;stroke-linecap:butt;stroke-linejoin:miter;stroke-opacity:1;stroke-miterlimit:4;stroke-dasharray:none"
         d="M 320.22281,860.51063 L 318.66606,810.97112 C 318.77353,805.90439 300.36591,804.89335 300.47338,810.58301 L 299.06271,846.4039 C 286.93629,841.317 285.72702,830.95047 284.07431,823.86858 C 274.02954,823.4076 264.81183,822.81834 256.25457,822.07904 C 195.50985,816.83101 168.04562,804.02228 114.26453,775.87024 C 155.77221,822.09485 241.36773,858.43006 320.22281,860.51063 z "
         id="path1354"
         sodipodi:nodetypes="cccccscc" />
      <path
         style="fill:none;fill-opacity:0.75;fill-rule:evenodd;stroke:#000000;stroke-width:2;stroke-linecap:butt;stroke-linejoin:miter;stroke-opacity:1;stroke-miterlimit:4;stroke-dasharray:none"
         d="M 299.13314,846.84764 C 255.41962,846.6059 220.94549,836.73667 187.52935,822.43922"
         id="path12746"
         sodipodi:nodetypes="cc" />
    </g>
    <path
       sodipodi:nodetypes="ccccc"
       id="path1362"
       d="M 225.81835,550.39937 C 222.01968,542.44416 210.46229,548.0667 214.77499,554.39455 C 221.85688,565.84619 225.76475,573.24214 232.84664,584.69378 C 236.66059,591.01155 247.35157,587.10195 243.40682,581.07633 C 236.66233,568.79345 232.56284,562.68225 225.81835,550.39937 z "
       style="fill:#d2d2d2;fill-opacity:1;fill-rule:evenodd;stroke:#000000;stroke-width:2;stroke-linecap:butt;stroke-linejoin:miter;stroke-opacity:1;stroke-miterlimit:4;stroke-dasharray:none" />
  </g>
  <g
     id="g12772"
     transform="translate(5.785288,11.57058)"
     style="fill:#d2d2d2;fill-opacity:1">
    <g
       id="g12764"
       style="fill:#d2d2d2;fill-opacity:1">
      <path
         style="fill:#d2d2d2;fill-opacity:1;fill-rule:evenodd;stroke:#000000;stroke-width:2;stroke-linecap:butt;stroke-linejoin:miter;stroke-opacity:1;stroke-miterlimit:4;stroke-dasharray:none"
         d="M 234.87708,467.63815 C 228.99928,473.3984 178.68527,429.07975 185.50352,422.49661 L 303.20181,303.46587 C 311.06036,296.67572 321.22376,298.67417 326.52805,302.04786 C 334.70901,308.24074 338.56502,313.05838 338.30485,328.43013 C 345.05913,325.01712 357.13585,333.90902 348.6783,344.21159 L 234.87708,467.63815 z "
         id="path1364"
         sodipodi:nodetypes="ccccccc" />
      <path
         style="fill:#d2d2d2;fill-opacity:1;fill-rule:evenodd;stroke:#000000;stroke-width:2;stroke-linecap:butt;stroke-linejoin:miter;stroke-opacity:1;stroke-miterlimit:4;stroke-dasharray:none"
         d="M 297.75272,309.72599 L 341.64257,351.1221"
         id="path12754" />
      <path
         style="fill:#d2d2d2;fill-opacity:1;fill-rule:evenodd;stroke:#000000;stroke-width:2;stroke-linecap:butt;stroke-linejoin:miter;stroke-opacity:1;stroke-miterlimit:4;stroke-dasharray:none"
         d="M 274.31156,333.66591 L 319.1989,376.05951"
         id="path12756" />
      <path
         style="fill:#d2d2d2;fill-opacity:1;fill-rule:evenodd;stroke:#000000;stroke-width:2;stroke-linecap:butt;stroke-linejoin:miter;stroke-opacity:1;stroke-miterlimit:4;stroke-dasharray:none"
         d="M 250.37164,356.60833 L 296.25648,401.49567"
         id="path12758" />
      <path
         style="fill:#d2d2d2;fill-opacity:1;fill-rule:evenodd;stroke:#000000;stroke-width:2;stroke-linecap:butt;stroke-linejoin:miter;stroke-opacity:1;stroke-miterlimit:4;stroke-dasharray:none"
         d="M 227.92796,380.54825 L 270.81371,421.10325 L 274.34181,424.64469"
         id="path12760"
         sodipodi:nodetypes="ccc" />
      <path
         style="fill:#d2d2d2;fill-opacity:1;fill-rule:evenodd;stroke:#000000;stroke-width:2;stroke-linecap:butt;stroke-linejoin:miter;stroke-opacity:1;stroke-miterlimit:4;stroke-dasharray:none"
         d="M 204.98554,403.49067 L 253.39438,447.58711"
         id="path12762"
         sodipodi:nodetypes="cc" />
    </g>
    <path
       id="path12752"
       d="M 215.01582,457.33042 L 338.35793,328.00335"
       style="fill:#d2d2d2;fill-opacity:1;fill-rule:evenodd;stroke:#000000;stroke-width:2;stroke-linecap:butt;stroke-linejoin:miter;stroke-opacity:1;stroke-miterlimit:4;stroke-dasharray:none"
       sodipodi:nodetypes="cc" />
  </g>
  <use
     x="0"
     y="0"
     xlink:href="#g12772"
     id="use12784"
     transform="matrix(0,1,-1,0,664.0651,-85.95552)"
     width="744.09448"
     height="1052.3622" />
  <use
     x="0"
     y="0"
     xlink:href="#g12772"
     id="use12786"
     transform="matrix(-1,0,0,-1,745.6817,590.6443)"
     width="744.09448"
     height="1052.3622" />
  <use
     x="0"
     y="0"
     xlink:href="#g12772"
     id="use12788"
     transform="matrix(0,-1,1,0,68.84074,675.3946)"
     width="744.09448"
     height="1052.3622" />
  <use
     x="0"
     y="0"
     xlink:href="#g12790"
     id="use12799"
     transform="matrix(-1,0,0,1,748.7784,-1.363616)"
     width="744.09448"
     height="1052.3622" />
</svg>

<svg xmlns="http://www.w3.org/2000/svg" xmlns:xlink="http://www.w3.org/1999/xlink" width="210mm" height="265mm" version="1.0"><path style="fill:#00d700;fill-opacity:1;fill-rule:evenodd;stroke:#000;stroke-width:2;stroke-linecap:butt;stroke-linejoin:miter;stroke-opacity:1;stroke-miterlimit:4;stroke-dasharray:none" d="m8.607 21.445 729.318-4.232-1.411 560.038s-30.98 340.92-358.311 341.382C38.227 919.113 7.16 558.912 7.16 558.912L8.607 21.445z"/><path style="fill:#00f;fill-opacity:1;fill-rule:evenodd;stroke:#000;stroke-width:1px;stroke-linecap:butt;stroke-linejoin:miter;stroke-opacity:1" d="M6.714 11.839 6.232 534.93l730.282-5.642V12.98L6.714 11.84z"/><path style="fill:#d2d2d2;fill-opacity:1;fill-rule:evenodd;stroke:#000;stroke-width:2;stroke-linecap:butt;stroke-linejoin:miter;stroke-opacity:1;stroke-miterlimit:4;stroke-dasharray:none" d="M7.196 123.014H57.98V67.48h93.105l-.893 56.944h44.623V66.587h93.516l-.411 56.427h40.91l.517-57.32 91.623-.071-.447 56.498 43.731.964v-59.32h94.89l-.375 59.802 46.999-.446V64.176l89.8.072-.82 56.909 42.177.482-.411-108.658-729.211-.696-.107 110.729zM334.576 349.615l42.216-45.544 44.844 42.607 9.96-8.208-55.856-52.518 42.506-40.688-10.117-8.305-49.104 45.09-1.274-1.172-1.163-1.07-44.474-40.905-8.207 8.3 56.6 54.675-37.1 37.697 11.17 10.04z"/><path style="fill:#d2d2d2;fill-opacity:1;fill-rule:evenodd;stroke:#000;stroke-width:2;stroke-linecap:butt;stroke-linejoin:miter;stroke-opacity:1;stroke-miterlimit:4;stroke-dasharray:none" d="M-253.921 242.636a7.053 7.053 0 1 1-14.107 0 7.053 7.053 0 1 1 14.107 0z" transform="translate(629.552 52.145)"/><path style="fill:#d2d2d2;fill-opacity:1;fill-rule:evenodd;stroke:#000;stroke-width:2;stroke-linecap:butt;stroke-linejoin:miter;stroke-opacity:1;stroke-miterlimit:4;stroke-dasharray:none" d="m7.125 516.592-.482 40.016c19.749-7.053 37.503-22.469 56.405-23.088 18.267.811 72.178 32.545 94.435 32.858 25.035 1.155 84.717-33.567 106.76-33.908 27.928-1.568 82.056 30.746 105.496 30.674 22.328.656 85.553-31.14 105.387-31.481 25.553 1.105 88.114 35.93 110.617 36.625 20.803 1.212 85.496-32.489 103.806-34.27 20.918.128 30.448 8.835 47.376 14.948l-.411-42.25c-15.517-5.172-28.541-15.332-46.552-15.517-18.338.755-83.06 35.923-104.39 36.678-19.164-.284-90.697-33.985-112.854-35.267-17.81.783-84.997 34.484-105.8 35.267-21.388-.313-72.201-33.045-101.569-33.856-22.328-.77-78.072 37.86-104.39 38.088-20.504.3-73.925-39.799-95.925-39.499-17.84-.984-39.57 15.988-57.91 23.982z"/><g id="a"><path d="M121.196 514.712 94.762 503.24M121.196 523.689l-31.421-14.962M121.695 530.671 87.78 516.208" style="fill:none;fill-opacity:.75;fill-rule:evenodd;stroke:#000;stroke-width:2;stroke-linecap:butt;stroke-linejoin:miter;stroke-opacity:1;stroke-miterlimit:4;stroke-dasharray:none" transform="translate(5.785 11.57)"/></g><use x="0" y="0" xlink:href="#a" id="b" transform="translate(406.979 -5.985)" width="744.094" height="1052.362"/><use xlink:href="#b" transform="translate(-193.03 7.515)" width="744.094" height="1052.362"/><use xlink:href="#a" transform="translate(610.468 -7.98)" width="744.094" height="1052.362"/><g id="d"><path d="m318.13 811.713.2-259.963c-.235-6.877-19.385-7.76-19.267 0l2.092 259.916 16.975.047z" style="fill:#d2d2d2;fill-opacity:1;fill-rule:evenodd;stroke:#000;stroke-width:2;stroke-linecap:butt;stroke-linejoin:miter;stroke-opacity:1;stroke-miterlimit:4;stroke-dasharray:none" transform="translate(5.785 11.57)"/><path d="m300.473 660.195-43.73-1.058c-6.349-.059-6.701 13.637 0 14.107l43.645 1.058c3.379.059 2.878-13.99.085-14.107zM299.063 567.09h-71.068l.358-11.114 70.533 1.064c3.762 0 3.997 10.403.177 10.05z" style="fill:#d2d2d2;fill-opacity:1;fill-rule:evenodd;stroke:#000;stroke-width:2;stroke-linecap:butt;stroke-linejoin:miter;stroke-opacity:1;stroke-miterlimit:4;stroke-dasharray:none" transform="translate(5.785 11.57)"/><path style="fill:#c3c3c3;fill-opacity:1;fill-rule:evenodd;stroke:#000;stroke-width:2;stroke-linecap:butt;stroke-linejoin:miter;stroke-opacity:1;stroke-miterlimit:4;stroke-dasharray:none" d="m320.223 860.51-1.557-49.539c.108-5.067-18.3-6.078-18.193-.388l-1.41 35.82c-12.127-5.086-13.336-15.453-14.989-22.534-10.044-.461-19.262-1.05-27.82-1.79-60.744-5.248-88.208-18.057-141.99-46.209 41.508 46.225 127.104 82.56 205.959 84.64z" transform="translate(5.785 11.57)"/><path style="fill:none;fill-opacity:.75;fill-rule:evenodd;stroke:#000;stroke-width:2;stroke-linecap:butt;stroke-linejoin:miter;stroke-opacity:1;stroke-miterlimit:4;stroke-dasharray:none" d="M299.133 846.848c-43.713-.242-78.188-10.111-111.604-24.409" transform="translate(5.785 11.57)"/><path d="M225.818 550.4c-3.798-7.956-15.356-2.333-11.043 3.995 7.082 11.451 10.99 18.847 18.072 30.299 3.814 6.318 14.505 2.408 10.56-3.618-6.745-12.283-10.844-18.394-17.589-30.677z" style="fill:#d2d2d2;fill-opacity:1;fill-rule:evenodd;stroke:#000;stroke-width:2;stroke-linecap:butt;stroke-linejoin:miter;stroke-opacity:1;stroke-miterlimit:4;stroke-dasharray:none" transform="translate(5.785 11.57)"/></g><g id="c" style="fill:#d2d2d2;fill-opacity:1"><g style="fill:#d2d2d2;fill-opacity:1"><path style="fill:#d2d2d2;fill-opacity:1;fill-rule:evenodd;stroke:#000;stroke-width:2;stroke-linecap:butt;stroke-linejoin:miter;stroke-opacity:1;stroke-miterlimit:4;stroke-dasharray:none" d="M234.877 467.638c-5.878 5.76-56.192-38.558-49.373-45.141l117.698-119.031c7.858-6.79 18.022-4.792 23.326-1.418 8.181 6.193 12.037 11.01 11.777 26.382 6.754-3.413 18.83 5.479 10.373 15.782l-113.8 123.426zM297.753 309.726l43.89 41.396M274.312 333.666l44.887 42.394M250.372 356.608l45.884 44.888" transform="translate(5.785 11.57)"/><path style="fill:#d2d2d2;fill-opacity:1;fill-rule:evenodd;stroke:#000;stroke-width:2;stroke-linecap:butt;stroke-linejoin:miter;stroke-opacity:1;stroke-miterlimit:4;stroke-dasharray:none" d="m227.928 380.548 42.886 40.555 3.528 3.542M204.986 403.49l48.408 44.097" transform="translate(5.785 11.57)"/></g><path d="m215.016 457.33 123.342-129.327" style="fill:#d2d2d2;fill-opacity:1;fill-rule:evenodd;stroke:#000;stroke-width:2;stroke-linecap:butt;stroke-linejoin:miter;stroke-opacity:1;stroke-miterlimit:4;stroke-dasharray:none" transform="translate(5.785 11.57)"/></g><use xlink:href="#c" transform="rotate(90 375.01 289.055)" width="744.094" height="1052.362"/><use xlink:href="#c" transform="rotate(180 372.84 295.322)" width="744.094" height="1052.362"/><use xlink:href="#c" transform="rotate(-90 372.118 303.277)" width="744.094" height="1052.362"/><use xlink:href="#d" transform="matrix(-1 0 0 1 748.778 -1.364)" width="744.094" height="1052.362"/></svg>
